svg/fluentui-system-icons/ic_fluent_mail_unread_16_regular.svg

<svg width="16" height="16" viewBox="0 0 16 16" fill="none" xmlns="http://www.w3.org/2000/svg">
<path d="M14 5.23244C14.5978 4.88663 15 4.24028 15 3.5C15 2.39543 14.1046 1.5 13 1.5C12.0681 1.5 11.285 2.13739 11.063 3C11.063 2.99994 11.063 3.00006 11.063 3C11.0219 3.15976 11 3.32741 11 3.5C11 3.67265 11.0219 3.84019 11.063 4C11.285 4.86262 12.0681 5.5 13 5.5C13.3643 5.5 13.7058 5.40261 14 5.23244ZM4 3H10.0415C10.0142 3.1626 10 3.32964 10 3.5C10 3.67036 10.0142 3.8374 10.0415 4H4C3.44772 4 3 4.44772 3 5V5.73976L8.0001 8.43212L11.9436 6.30871C12.2722 6.43236 12.6282 6.5 13 6.5C13.3506 6.5 13.6872 6.43985 14 6.32929V11C14 12.1046 13.1046 13 12 13H4C2.89543 13 2 12.1046 2 11V5C2 3.89543 2.89543 3 4 3ZM3 6.87552V11C3 11.5523 3.44772 12 4 12H12C12.5523 12 13 11.5523 13 11V6.87562L8.23715 9.44024C8.08916 9.51992 7.91104 9.51992 7.76305 9.44024L3 6.87552Z" fill="#212121"/>
</svg>

<svg xmlns="http://www.w3.org/2000/svg" width="16" height="16"><path d="M14 5.232A2 2 0 1 0 11.063 3a2.005 2.005 0 0 0 0 1A2 2 0 0 0 14 5.232ZM4 3h6.041a3.018 3.018 0 0 0 0 1H4a1 1 0 0 0-1 1v.74l5 2.692 3.944-2.123a2.993 2.993 0 0 0 2.056.02V11a2 2 0 0 1-2 2H4a2 2 0 0 1-2-2V5a2 2 0 0 1 2-2ZM3 6.876V11a1 1 0 0 0 1 1h8a1 1 0 0 0 1-1V6.876L8.237 9.44a.5.5 0 0 1-.474 0L3 6.876Z"/></svg>
